X: 8472
T: Cranford's Five Day Wedding
R: reel
M: 4/4
K: Gmajor
|:d|gedG {A}B2AB|{B}c2BA GEEG|DB,DE GABG|{B}c2BG BAAd|
gedG {A}B2AB|{B}c2BA GEEG|DB,DE GABG|{B}c2BA BGG:|
|:d|gage gddg|abag aeea|gage (3ded Bd|egdB AGAB|
gage gddg|abag aeeg|dedB degB|{B}c2BA BGG:|

